src/icons/outline/communication/phone-callback.svg

<svg width="24" height="24" viewBox="0 0 24 24" fill="none" xmlns="http://www.w3.org/2000/svg">
<g clip-path="url(#clip0_4614_361)">
<path fill-rule="evenodd" clip-rule="evenodd" d="M5.46772 1.05489C7.11318 0.744537 8.09098 2.29718 8.7392 3.31856L8.82807 3.46797C9.4763 4.47935 10.2945 5.76184 9.93549 7.22383C9.74594 8.01474 9.17739 8.47569 8.7187 8.83614C8.639 8.90613 8.55914 8.96631 8.47944 9.03633C8.3598 9.14642 8.21978 9.24655 8.07026 9.35664C7.79118 9.56681 7.47202 9.80687 7.41206 10.007C7.21262 10.7079 7.79125 11.6194 8.01069 11.9699C8.8384 13.2817 9.81581 14.3731 10.9726 15.3244C11.4114 15.6849 12.1497 16.2959 12.6982 16.1857C13.0671 16.1156 13.3267 15.845 13.7255 15.4045C14.1942 14.8939 14.7824 14.2529 15.7695 14.1027C17.3153 13.8624 18.3629 14.8036 19.1308 15.4846L19.6591 15.9455C20.4569 16.6064 21.5438 17.5181 21.454 18.8498C21.3841 19.7408 20.766 20.2718 20.3173 20.6623L20.2275 20.7424C20.0879 20.8625 19.9479 20.9921 19.8183 21.1223C19.5292 21.3925 19.2305 21.6832 18.8915 21.9035C17.7746 22.6345 16.4472 23.0051 14.9414 23.0051L14.9521 23.0148H14.6523C13.007 22.9647 11.7208 22.3839 10.6738 21.8332C8.33027 20.5816 6.56474 18.7595 5.27827 17.3176C3.46325 15.2748 2.18633 13.2019 1.48823 11.1691C0.48098 8.20512 0.950188 5.09084 2.7353 3.04805C2.9746 2.77773 3.28362 2.51734 3.59272 2.25703L4.04194 1.87618C4.39094 1.56579 4.81964 1.17502 5.46772 1.05489ZM5.74702 2.52754C5.51764 2.5676 5.2981 2.76793 5.04878 2.99825L4.54975 3.41817C4.29054 3.62839 4.02179 3.85906 3.86225 4.03926C2.44611 5.65146 2.07727 8.25513 2.91499 10.6584C3.55326 12.5108 4.7297 14.4034 6.41499 16.3059C7.69149 17.7378 9.27735 19.3599 11.3915 20.4914C12.329 20.9921 13.3765 21.4631 14.7128 21.5031C16.0191 21.5531 17.1663 21.2523 18.0937 20.6516C18.3229 20.5014 18.5624 20.2716 18.8115 20.0314C18.9611 19.8913 19.1109 19.7507 19.2705 19.6105L19.3593 19.5305C19.7382 19.2001 19.9682 18.9897 19.9882 18.7395C20.0281 18.1787 19.3098 17.5873 18.7314 17.1066L18.163 16.6164C17.5248 16.0456 16.8662 15.4748 16.0185 15.5949C15.57 15.6651 15.2811 15.9556 14.8525 16.426C14.3938 16.9266 13.8749 17.4871 13.0175 17.6574C11.7709 17.9078 10.6931 17.0173 10.0449 16.4865C8.75839 15.4351 7.69206 14.2227 6.7646 12.7707C6.44544 12.27 5.60739 10.9486 5.98628 9.59688C6.17576 8.90594 6.73456 8.48519 7.19331 8.14473C7.30294 8.05469 7.42275 7.97478 7.52241 7.89473C7.61215 7.81464 7.71197 7.73434 7.8017 7.66426C8.14051 7.39411 8.42897 7.16359 8.49897 6.86348C8.7084 6.02233 8.16013 5.18069 7.64155 4.35957L7.49213 4.11934C6.9685 3.30251 6.49748 2.60896 5.98042 2.52559L5.8769 2.5168H5.86616C5.85986 2.51682 5.78521 2.51796 5.74702 2.52754Z" fill="#3C3B44"/>
<path d="M15.8476 1.10371C16.1453 0.915948 16.5486 0.990387 16.748 1.27071C16.9474 1.55114 16.867 1.93154 16.5693 2.11934L14.6748 3.31465L18.4697 3.3127C20.9852 3.31886 22.9999 4.6462 22.9999 7.36836C22.9999 9.14614 21.4995 11.091 18.1982 11.091H16.9999C16.6416 11.091 16.3516 10.8171 16.3515 10.4797C16.3515 10.1422 16.6416 9.86836 16.9999 9.86836H18.1982C21.4995 9.86836 21.7021 8.14614 21.7021 7.36836C21.7021 5.14626 20.2624 4.53538 18.458 4.53536C18.4502 4.53536 18.4423 4.53464 18.4345 4.53438L14.6103 4.53536L16.6103 6.01973C16.8917 6.22871 16.9396 6.61311 16.7177 6.87813C16.4958 7.14315 16.088 7.18868 15.8066 6.97969L12.247 4.33614C12.084 4.21509 11.9919 4.02757 11.9999 3.83223C12.0081 3.63702 12.1157 3.45755 12.288 3.34883L15.8476 1.10371Z" fill="#3C3B44"/>
</g>
<defs>
<clipPath id="clip0_4614_361">
<rect width="24" height="24" fill="white"/>
</clipPath>
</defs>
</svg>

<svg xmlns="http://www.w3.org/2000/svg" width="24" height="24" fill="none" viewBox="0 0 24 24"><g fill="currentColor" clip-path="url(#a)"><path fill-rule="evenodd" d="M5.468 1.055C7.113.745 8.09 2.297 8.739 3.319l.09.149c.647 1.011 1.465 2.294 1.106 3.756-.19.79-.758 1.252-1.216 1.612-.08.07-.16.13-.24.2-.12.11-.26.21-.409.32-.279.21-.598.45-.658.651-.2.7.38 1.612.599 1.963a13.9 13.9 0 0 0 2.962 3.354c.438.36 1.177.972 1.725.862.37-.07.629-.341 1.027-.781.47-.511 1.057-1.152 2.045-1.302 1.545-.24 2.593.7 3.36 1.382l.53.46c.797.661 1.884 1.573 1.794 2.905-.07.89-.688 1.422-1.137 1.812l-.09.08c-.14.12-.28.25-.409.38-.289.27-.588.561-.927.782-1.116.73-2.444 1.101-3.95 1.101l.011.01h-.3c-1.645-.05-2.931-.631-3.978-1.182-2.344-1.251-4.11-3.073-5.396-4.515-1.815-2.043-3.092-4.116-3.79-6.149C.481 8.205.95 5.091 2.735 3.048c.24-.27.549-.53.858-.791l.449-.38c.349-.311.778-.702 1.426-.822m.279 1.473c-.23.04-.449.24-.698.47l-.5.42c-.258.21-.527.441-.687.621-1.416 1.612-1.785 4.216-.947 6.62.638 1.852 1.815 3.744 3.5 5.647 1.276 1.432 2.862 3.054 4.977 4.185.937.501 1.985.972 3.32 1.012 1.307.05 2.454-.25 3.382-.851.229-.15.468-.38.717-.62.15-.14.3-.281.46-.422l.088-.08c.38-.33.61-.54.63-.79.04-.561-.68-1.153-1.258-1.633l-.568-.49c-.638-.571-1.297-1.142-2.145-1.022-.448.07-.737.36-1.166.831-.458.5-.977 1.061-1.835 1.231-1.246.25-2.324-.64-2.972-1.17a15.4 15.4 0 0 1-3.28-3.716c-.32-.501-1.158-1.822-.779-3.174.19-.691.749-1.112 1.207-1.452.11-.09.23-.17.33-.25.09-.08.189-.16.279-.23.339-.27.627-.501.697-.802.21-.84-.339-1.682-.857-2.503l-.15-.24c-.524-.817-.995-1.511-1.512-1.594l-.103-.01h-.01a1 1 0 0 0-.12.012" clip-rule="evenodd"/><path d="M15.848 1.104a.674.674 0 0 1 .9.167c.2.28.119.66-.179.848l-1.894 1.196 3.795-.002C20.985 3.319 23 4.646 23 7.368c0 1.778-1.5 3.723-4.802 3.723H17c-.358 0-.648-.274-.648-.611 0-.338.29-.612.648-.612h1.198c3.302 0 3.504-1.722 3.504-2.5 0-2.222-1.44-2.833-3.244-2.833H14.61l2 1.485c.282.209.33.593.108.858a.676.676 0 0 1-.911.102l-3.56-2.644A.6.6 0 0 1 12 3.832a.6.6 0 0 1 .288-.483z"/></g><defs><clipPath id="a"><path fill="currentColor" d="M0 0h24v24H0z"/></clipPath></defs></svg>
